svgs/thin/arrow-up-arrow-down.svg

<svg xmlns="http://www.w3.org/2000/svg" viewBox="0 0 448 512"><!--! Font Awesome Pro 6.0.0-alpha3 by @fontawesome - https://fontawesome.com License - https://fontawesome.com/license (Commercial License) --><path d="M226.6 370.2c-3.25 3.002-3.469 8.064-.5 11.32l88 96.02c3.062 3.312 8.75 3.312 11.81 0l88-96.02c2.969-3.252 2.75-8.314-.5-11.32c-1.531-1.406-3.469-2.094-5.406-2.094c-2.156 0-4.312 .875-5.906 2.594L328 451.5V40C328 35.59 324.4 32 320 32s-8 3.594-8 8.002v411.5l-74.1-80.85C234.9 367.4 229.8 367.2 226.6 370.2zM34.59 141.8c1.531 1.406 3.469 2.094 5.406 2.094c2.156 0 4.312-.875 5.906-2.594L120 60.47V471.1C120 476.4 123.6 480 128 480s8-3.594 8-8.002V60.47l74.1 80.85c3 3.281 8.062 3.5 11.31 .5c3.25-3.002 3.469-8.064 .5-11.32L133.9 34.48c-3.062-3.312-8.75-3.312-11.81 0L34.09 130.5C31.12 133.8 31.34 138.8 34.59 141.8z"/></svg>

<svg xmlns="http://www.w3.org/2000/svg" viewBox="0 0 448 512"><!-- Font Awesome Pro 6.0.0-alpha2 by @fontawesome - https://fontawesome.com License - https://fontawesome.com/license (Commercial License) --><path d="M226.59 370.176C223.34 373.178 223.121 378.24 226.09 381.492L314.094 477.516C317.156 480.828 322.844 480.828 325.906 477.516L413.91 381.492C416.879 378.24 416.66 373.178 413.41 370.176C411.879 368.77 409.941 368.082 408.004 368.082C405.848 368.082 403.691 368.957 402.098 370.676L328 451.529V40.002C328 35.594 324.406 32 320 32S312 35.594 312 40.002V451.529L237.902 370.676C234.902 367.395 229.84 367.176 226.59 370.176ZM34.59 141.824C36.121 143.23 38.059 143.918 39.996 143.918C42.152 143.918 44.309 143.043 45.902 141.324L120 60.471V471.998C120 476.406 123.594 480 128 480S136 476.406 136 471.998V60.471L210.098 141.324C213.098 144.605 218.16 144.824 221.41 141.824C224.66 138.822 224.879 133.76 221.91 130.508L133.906 34.484C130.844 31.172 125.156 31.172 122.094 34.484L34.09 130.508C31.121 133.76 31.34 138.822 34.59 141.824Z"/></svg>
